X: 34484
T: Riding On A Load Of Hay
R: polka
M: 2/4
K: Edorian
|:E>F GA|Be ef/e/|dB AG|FD D2|
E>F GA|Be ef/e/|ge af|1 e2 e2:|2 e2 ef||
g2 f2|eB BB/c/|dB AG|FD D2|
ge fd|eB BA|Be df|e2 ef|
g2 f2|eB BB/c/|dB AG|FD D2|
EF GA|Be ef/e/|ge af|e2 e2||

